remix/Document/sticky-note-line.svg

<svg viewBox="0 0 24 24" fill="currentColor" xmlns="http://www.w3.org/2000/svg"><path d="M21 15L15 20.996L4.00221 21C3.4487 21 3 20.5551 3 20.0066V3.9934C3 3.44476 3.44495 3 3.9934 3H20.0066C20.5552 3 21 3.45576 21 4.00247V15ZM19 5H5V19H13V14C13 13.4872 13.386 13.0645 13.8834 13.0067L14 13L19 12.999V5ZM18.171 14.999L15 15V18.169L18.171 14.999Z"/></svg>

<svg viewBox="0 0 24 24" xmlns="http://www.w3.org/2000/svg"><path fill="none" d="M0 0h24v24H0Z"/><path d="M21 15l-6 5.99 -11 0v0c-.56 0-1-.45-1.01-1V3.97c-.001-.55.44-1 .99-1h16.01c.54 0 .99.45.99 1v10.99ZM19 5H5v14h8v-5 0c0-.51.37-.94.88-1l.11-.01 5-.01v-8Zm-.83 9.999l-3.18 0v3.16l3.17-3.17Z"/></svg>
